mobile/apps/auth/assets/custom-icons/icons/kraken.svg

<svg width="500" height="500" viewBox="0 0 500 500" fill="none" xmlns="http://www.w3.org/2000/svg">
<path d="M233.918 53.5499C277.36 50.6259 321.637 59.3977 360.485 79.0302C418.129 107.435 464.077 158.395 485.38 218.546C494.987 245.279 500 273.266 500 301.67V406.516C500 410.693 500 415.287 499.165 419.465C496.658 429.907 489.14 439.515 479.114 444.11C472.013 447.451 464.077 447.869 456.976 446.616C441.103 443.692 428.571 428.654 428.571 412.364C428.571 379.782 428.571 347.201 428.571 314.619C428.989 305.43 428.989 295.405 423.977 287.468C416.04 272.43 395.99 265.329 380.535 271.595C367.168 276.19 357.561 289.974 357.143 304.176C357.143 337.176 357.143 370.175 357.143 403.174C357.143 409.44 357.561 415.705 355.472 421.553C352.13 433.249 342.523 442.439 330.827 445.78C315.372 449.958 297.828 443.274 290.309 429.072C284.879 420.718 285.297 410.275 285.714 400.668C285.714 367.668 285.714 335.087 285.714 302.088C285.297 285.379 271.512 270.342 255.221 268.253C244.361 266.582 233.083 270.342 225.146 277.861C218.045 284.544 214.286 294.151 214.286 303.759V399.414C214.286 407.351 215.121 415.705 212.197 423.224C207.602 437.009 193.818 447.033 179.198 446.616C164.16 447.451 149.541 437.009 144.946 423.224C142.439 416.123 142.857 409.022 142.857 401.503C142.857 368.504 142.857 335.505 142.857 302.506C142.857 286.215 129.908 271.177 114.035 268.253C99.4152 265.329 83.5422 272.43 76.0234 285.797C73.0994 291.227 71.4286 297.493 71.4286 303.759V411.11C71.4286 421.553 66.8337 431.996 58.8972 438.679C46.7836 449.122 27.1512 449.957 14.6199 440.35C5.43024 434.084 0 423.224 0 411.946V303.341C0 262.405 10.4428 221.47 30.0752 185.129C45.9482 155.471 68.0869 129.155 94.4027 108.27C133.25 75.6885 182.957 56.4739 233.918 53.5499Z" fill="#5741D9"/>
</svg>

<svg xmlns="http://www.w3.org/2000/svg" fill="none" viewBox="0 0 500 500"><path fill="#5741D9" d="M233.918 53.55c43.442-2.924 87.719 5.848 126.567 25.48 57.644 28.405 103.592 79.365 124.895 139.516 9.607 26.733 14.62 54.72 14.62 83.124v104.846c0 4.177 0 8.771-.835 12.949-2.507 10.442-10.025 20.05-20.051 24.645-7.101 3.341-15.037 3.759-22.138 2.506-15.873-2.924-28.405-17.962-28.405-34.252v-97.745c.418-9.189.418-19.214-4.594-27.151-7.937-15.038-27.987-22.139-43.442-15.873-13.367 4.595-22.974 18.379-23.392 32.581v98.998c0 6.266.418 12.531-1.671 18.379-3.342 11.696-12.949 20.886-24.645 24.227-15.455 4.178-32.999-2.506-40.518-16.708-5.43-8.354-5.012-18.797-4.595-28.404v-98.58c-.417-16.709-14.202-31.746-30.493-33.835-10.86-1.671-22.138 2.089-30.075 9.608-7.101 6.683-10.86 16.29-10.86 25.898v95.655c0 7.937.835 16.291-2.089 23.81-4.595 13.785-18.379 23.809-32.999 23.392-15.038.835-29.657-9.607-34.252-23.392-2.507-7.101-2.089-14.202-2.089-21.721v-98.997c0-16.291-12.949-31.329-28.822-34.253-14.62-2.924-30.493 4.177-38.012 17.544-2.924 5.43-4.594 11.696-4.594 17.962V411.11c0 10.443-4.595 20.886-12.532 27.569-12.113 10.443-31.746 11.278-44.277 1.671C5.43 434.084 0 423.224 0 411.946V303.341c0-40.936 10.443-81.871 30.075-118.212 15.873-29.658 38.012-55.974 64.328-76.859 38.847-32.581 88.554-51.796 139.515-54.72Z"/></svg>
